icons/status/22/kdeconnect-tray.svg

<svg xmlns="http://www.w3.org/2000/svg" viewBox="0 0 22 22">
  <defs id="defs3051">
    <style type="text/css" id="current-color-scheme">
      .ColorScheme-Text {
        color:#4d4d4d;
      }
      </style>
  </defs>
    <path
       style="fill:currentColor;fill-opacity:1;stroke:none"
       d="M 6 3 L 6 19 L 16 19 L 16 3 L 6 3 z M 9 4 L 13 4 L 13 5 L 9 5 L 9 4 z M 7 6 L 15 6 L 15 11.5 L 13.892578 11.222656 C 13.825378 10.970456 13.725582 10.728253 13.595703 10.501953 L 14.181641 9.5253906 L 13.474609 8.8183594 L 12.498047 9.4042969 C 12.271331 9.2728969 12.028379 9.1718156 11.775391 9.1035156 L 11.5 8 L 10.5 8 L 10.222656 9.1074219 C 9.9705343 9.1744219 9.7282551 9.2743969 9.5019531 9.4042969 L 8.5253906 8.8183594 L 7.8183594 9.5253906 L 8.4042969 10.501953 C 8.2729059 10.728653 8.1717856 10.971609 8.1035156 11.224609 L 7 11.5 L 7 6 z M 11.089844 10.001953 A 2 2 0 0 1 12.986328 11.769531 L 12.984375 12.251953 A 2 2 0 0 1 10.867188 13.996094 A 2 2 0 0 1 9 11.988281 A 2 2 0 0 1 10.890625 10.003906 A 2 2 0 0 1 11.089844 10.001953 z M 7 12.5 L 8.1074219 12.777344 C 8.1746219 13.029544 8.2744179 13.271747 8.4042969 13.498047 L 7.8183594 14.474609 L 8.5253906 15.181641 L 9.5019531 14.595703 C 9.7286691 14.727103 9.9716214 14.828184 10.224609 14.896484 L 10.5 16 L 11.5 16 L 11.777344 14.892578 C 12.029466 14.825578 12.271745 14.725603 12.498047 14.595703 L 13.474609 15.181641 L 14.181641 14.474609 L 13.595703 13.498047 C 13.727094 13.271347 13.828214 13.028391 13.896484 12.775391 L 15 12.5 L 15 16 L 15 17 L 13 17 L 9 17 L 7 17 L 7 16 L 7 12.5 z "
          class="ColorScheme-Text"/>
</svg>

<svg xmlns="http://www.w3.org/2000/svg" viewBox="0 0 22 22">
  <defs id="defs3051">
    <style type="text/css" id="current-color-scheme">
      .ColorScheme-Text {
        color:#4d4d4d;
      }
      </style>
  </defs>
    <path
       style="fill:currentColor;fill-opacity:1;stroke:none"
       d="M 6,3 6,19 16,19 16,3 6,3 Z m 3,1 4,0 0,1 -4,0 0,-1 z m -2,2 8,0 0,5.5 -1.107422,-0.277344 c -0.0672,-0.2522 -0.166996,-0.494403 -0.296875,-0.720703 L 14.181641,9.525391 13.474609,8.8183594 12.498047,9.404297 C 12.271331,9.272897 12.028379,9.171816 11.775391,9.103516 L 11.5,8 10.5,8 10.222656,9.107422 C 9.970534,9.174422 9.728255,9.274397 9.501953,9.404297 L 8.5253906,8.8183594 7.8183594,9.525391 8.4042969,10.501953 c -0.131391,0.2267 -0.2325113,0.469656 -0.3007813,0.722656 L 7,11.5 7,6 Z m 4,4 c 0.06653,-10e-5 0.133016,-2.34e-4 0.199219,0.0098 0.0662,0.01 0.132038,0.0163 0.197265,0.0293 0.06592,0.014 0.131105,0.03078 0.195313,0.05078 0.0636,0.02 0.126177,0.04336 0.1875,0.06836 0.06129,0.026 0.121256,0.05394 0.179687,0.08594 0.05836,0.032 0.115076,0.06807 0.169922,0.105468 0.05538,0.038 0.108832,0.07799 0.160156,0.121094 0.05108,0.043 0.09997,0.08892 0.146485,0.136719 0.04604,0.047 0.08971,0.09704 0.130859,0.148437 0.0418,0.053 0.08091,0.107363 0.117188,0.164063 0.03609,0.056 0.06933,0.114228 0.09961,0.173828 0.02968,0.059 0.05641,0.119841 0.08008,0.181641 0.02463,0.062 0.04614,0.125253 0.06445,0.189453 0.01757,0.064 0.03191,0.129512 0.04297,0.195312 0.01114,0.066 0.01896,0.132519 0.02344,0.199219 0.0036,0.047 0.0056,0.09403 0.0059,0.140625 6e-5,0.067 -0.0032,0.133019 -0.0098,0.199219 -0.0065,0.066 -0.01626,0.132065 -0.0293,0.197265 -0.01363,0.066 -0.03058,0.131113 -0.05078,0.195313 -0.01965,0.064 -0.04247,0.1262 -0.06836,0.1875 -0.02564,0.061 -0.05432,0.121287 -0.08594,0.179687 -0.0323,0.058 -0.0675,0.115122 -0.105468,0.169922 -0.03766,0.055 -0.07807,0.108856 -0.121094,0.160156 -0.0431,0.051 -0.08873,0.09999 -0.136719,0.146485 -0.04729,0.046 -0.09683,0.09006 -0.148437,0.130859 -0.05268,0.042 -0.10744,0.08099 -0.164063,0.117188 -0.05624,0.036 -0.114258,0.06861 -0.173828,0.09961 -0.05918,0.03 -0.119806,0.05608 -0.181641,0.08008 -0.06204,0.025 -0.125266,0.04645 -0.189453,0.06445 -0.06435,0.017 -0.129532,0.03197 -0.195312,0.04297 -0.06597,0.011 -0.132462,0.01944 -0.199219,0.02344 -0.02795,0 -0.05595,-2.35e-4 -0.08398,0.0098 l -0.136719,0 c -0.03976,-8e-4 -0.07949,2.35e-4 -0.119141,-0.0098 -0.0662,-0.01 -0.132038,-0.0163 -0.197265,-0.0293 -0.06592,-0.014 -0.131105,-0.03078 -0.195313,-0.05078 -0.0636,-0.02 -0.126177,-0.04336 -0.1875,-0.06836 -0.06129,-0.026 -0.121256,-0.05394 -0.179687,-0.08594 -0.05836,-0.032 -0.115076,-0.06797 -0.169922,-0.105469 -0.05538,-0.038 -0.108832,-0.07799 -0.160156,-0.121094 -0.030111,-0.026 -0.059421,-0.05403 -0.087891,-0.08203 L 9.535165,13.36332 c -0.03532,-0.037 -0.0692,-0.07503 -0.101562,-0.115234 -0.0418,-0.053 -0.08091,-0.107463 -0.117188,-0.164063 -0.03609,-0.056 -0.069329,-0.114228 -0.099609,-0.173828 -0.02968,-0.059 -0.056408,-0.11984 -0.080078,-0.18164 -0.02463,-0.062 -0.046143,-0.125253 -0.064453,-0.189454 C 9.054696,12.475062 9.040357,12.40955 9.029297,12.34375 9.018157,12.27775 9.010339,12.211231 9.005859,12.144531 9.002259,12.097531 9.0003,12.050606 9,12.003906 c -6e-5,-0.066 0.00317,-0.133019 0.00977,-0.199218 0.0065,-0.066 0.016256,-0.132066 0.029296,-0.197266 0.01363,-0.066 0.030582,-0.131013 0.050782,-0.195313 0.01965,-0.064 0.042469,-0.1261 0.068359,-0.1875 0.02564,-0.061 0.054318,-0.121287 0.085938,-0.179687 0.0323,-0.058 0.0675,-0.115022 0.105468,-0.169922 0.03766,-0.055 0.07807,-0.108856 0.121094,-0.160156 0.0431,-0.051 0.08873,-0.09999 0.136719,-0.146485 0.04729,-0.046 0.09683,-0.08996 0.148437,-0.130859 0.05268,-0.042 0.10744,-0.08109 0.164063,-0.117188 0.05624,-0.036 0.114258,-0.06861 0.173828,-0.09961 0.05918,-0.03 0.119806,-0.05608 0.181641,-0.08008 0.06204,-0.025 0.125266,-0.04645 0.189453,-0.06445 0.06435,-0.018 0.129532,-0.03197 0.195312,-0.04297 0.06597,-0.011 0.132462,-0.01944 0.199219,-0.02344 C 10.906115,10.009766 10.953021,10 11,10 Z m -4,2.5 1.1074219,0.277344 c 0.0672,0.2522 0.166996,0.494403 0.296875,0.720703 l -0.5859375,0.976562 0.7070312,0.707032 0.9765624,-0.585938 c 0.226716,0.1314 0.469668,0.232481 0.722656,0.300781 L 10.5,16 l 1,0 0.277344,-1.107422 c 0.252122,-0.067 0.494401,-0.166975 0.720703,-0.296875 l 0.976562,0.585938 0.707032,-0.707032 -0.585938,-0.976562 c 0.131391,-0.2267 0.232511,-0.469656 0.300781,-0.722656 L 15,12.5 l 0,3.5 0,1 -2,0 -4,0 -2,0 0,-1 0,-3.5 z"
          class="ColorScheme-Text"/>
</svg>
